X:77
T:Wallop the Spot
R:jig
S:Session at Fleadh Ceol in Sligo 1990
H:See also #221
Z:id:hn-jig-77
M:6/8
K:D
FEF DFA|BAF dBA|FEF DFA|BAF AFE|FEF DFA|BAF d2e|fdf edB|BAF AFE:|
|:cdc eAA|fAA eAA|cdc eAA|BAF AFE|cdc eAA|fAA e2f|gfe dfe|dcB AFE:|
<end>
<start>
